X: 07001
T: PETE and APRIL'S WALTZ
C: Bob McQuillen 14 Oct 88
B: Bob's Note Book 7 #1
%R: waltz
Z: 2021 John Chambers <jc:trillian.mit.edu>
M: 3/4
L: 1/8
K: Bm
FA \
| "Bm"B2 B2 Bd | BA F2 DE | F2 B3 A | B4 FA | "Bm"B2 B2 Bd | "Em"AF E2 DE | "Bm"F2 B3 A | B3 c dB |
| "D"A2 FA BA | "Em"F2 E2 fe | "Bm"d2 Bc dB | "F#m"A2 F2 FA | "Bm"B2 Bd fe | "F#m"dB A2 FE | "Bm"F2 B3 A | B4 :|
|: AB \
| "D"d2 Ad fe | dB A2 FA | "Em"B2 d3 e | "D"d4 Bd | "Em"e2 ed ef | gf e2 fe | d2 B3 d | "A7"e4 fg |
| "D"a2 fa ba | "Em"f2 e2 de | "Bm"fe d2 B2 | "F#m"A4 FA | "Bm"B2 B2 df | "Em"af ef dB | "F#m"A2 F3 A | "Bm"B4 :|
%%begintext align
%% April and Pete
%% liked this tune, so it belongs to them
%% forever, with love and love always from Bob--
%%endtext

%%sep 1 1 500

%%sep 1 1 500

